Origami/32x32/apps/ocsstore.svg

<svg width="32" height="32" version="1.1" viewBox="0 0 32 32" xmlns="http://www.w3.org/2000/svg">
 <path d="M 16,3 A 14,14 0 0 0 2,17 14,14 0 0 0 16,31 14,14 0 0 0 30,17 14,14 0 0 0 16,3 Z" style="opacity:.2"/>
 <path d="M 16,2 A 14,14 0 0 0 2,16 14,14 0 0 0 16,30 14,14 0 0 0 30,16 14,14 0 0 0 16,2 Z" style="fill:#144379"/>
 <path d="M 16,7 C 13.69422,7.00225 11.460059,7.8012455 9.6757812,9.2617188 L 12.488281,12.074219 C 12.65249,12.030888 12.821805,12 13,12 l 6,0 c 0.178195,0 0.34751,0.03089 0.511719,0.07422 l 2.8125,-2.8125002 C 20.539942,7.8012445 18.30578,7.0022466 16,7 Z M 8.2617188,10.675781 C 6.8012454,12.460059 6.0022466,14.69422 6,17 c 0.00225,2.30578 0.8012453,4.539942 2.2617188,6.324219 L 11,20.585938 11,20 l 0,-1 0,-5 c 0,-0.178195 0.03089,-0.34751 0.07422,-0.511719 l -2.8125002,-2.8125 z m 15.4765622,0 -2.8125,2.8125 C 20.969112,13.65249 21,13.821805 21,14 l 0,6 c 0,0.178195 -0.03089,0.34751 -0.07422,0.511719 l 2.8125,2.8125 C 25.198755,21.539942 25.997753,19.30578 26,17 c -0.0022,-2.30578 -0.801246,-4.539941 -2.261719,-6.324219 z m -4.226562,11.25 C 19.34751,21.969112 19.178195,22 19,22 l -4,0 -3.773438,3.773438 C 12.690462,26.574128 14.331442,26.995788 16,27 c 2.30578,-0.0022 4.539942,-0.801246 6.324219,-2.261719 l -2.8125,-2.8125 z M 11,23.414062 9.6757812,24.738281 C 10.092339,25.074001 10.535167,25.375751 11,25.640625 l 0,-2.226563 z" style="opacity:.2"/>
 <path d="M 16 2 A 14 14 0 0 0 2 16 A 14 14 0 0 0 2.0214844 16.414062 A 14 14 0 0 1 16 3 A 14 14 0 0 1 29.978516 16.585938 A 14 14 0 0 0 30 16 A 14 14 0 0 0 16 2 z" style="fill:#ffffff;opacity:.1"/>
 <path d="M 16,6 C 13.69422,6.00225 11.460059,6.8012456 9.6757812,8.2617188 L 12.488281,11.074219 C 12.65249,11.030888 12.821805,11 13,11 l 6,0 c 0.178195,0 0.34751,0.03089 0.511719,0.07422 l 2.8125,-2.8125002 C 20.539942,6.8012455 18.30578,6.0022466 16,6 Z" style="fill:#00cea5"/>
 <path d="m8.2617188 9.6757812c-1.4604733 1.7842778-2.2594722 4.0184388-2.2617188 6.3242188 0.00225 2.30578 0.8012454 4.539942 2.2617188 6.324219l2.7382812-2.738281v-0.585938-1-5c0-0.178195 0.030889-0.34751 0.074219-0.511719l-2.8125002-2.8124998z" style="fill:#d152ac"/>
 <path d="m 23.738281,9.6757812 -2.8125,2.8124998 C 20.969112,12.65249 21,12.821805 21,13 l 0,6 c 0,0.178195 -0.03089,0.34751 -0.07422,0.511719 l 2.8125,2.8125 C 25.198754,20.539942 25.997753,18.30578 26,16 25.997753,13.69422 25.198754,11.460059 23.738281,9.6757812 Z" style="fill:#d75950"/>
 <path d="m19.511719 20.925781c-0.164209 0.043331-0.333524 0.074219-0.511719 0.074219h-4l-3.773438 3.773438c1.463899 0.80069 3.10488 1.22235 4.773438 1.226562 2.30578-0.0022 4.539942-0.801246 6.324219-2.261719l-2.8125-2.8125zm-8.511719 1.488281l-1.3242188 1.324219c0.4165578 0.33572 0.8593858 0.63747 1.3242188 0.902344v-2.226563z" style="fill:#e88a19"/>
 <path d="m16 6c-2.30578 0.00225-4.539941 0.8012454-6.3242188 2.2617188l0.5722658 0.5722656c1.679196-1.1846739 3.685356-1.8319678 5.751953-1.8339844 2.066597 0.0020136 4.072758 0.6493087 5.751953 1.8339844l0.572266-0.5722656c-1.784277-1.4604744-4.018439-2.2594722-6.324219-2.2617188zm-7.7382812 3.6757812c-1.4604735 1.7842778-2.2594722 4.0184388-2.2617188 6.3242188 1.633e-4 0.167312 0.0129827 0.333587 0.0214844 0.5 0.1086606-2.126981 0.8857358-4.169412 2.2402344-5.824219l2.7382812 2.738281v-0.414062c0-0.178195 0.030889-0.34751 0.074219-0.511719l-2.8125002-2.8124998zm15.476562 0l-2.8125 2.8124998c0.043331 0.164209 0.074219 0.333524 0.074219 0.511719v0.414062l2.738281-2.738281c1.354498 1.654807 2.131605 3.697238 2.240235 5.824219 0.008501-0.166413 0.021321-0.332688 0.021484-0.5-0.002247-2.30578-0.801246-4.539941-2.261719-6.3242188zm-2.738281 9.3242188c0 0.178195-0.030889 0.34751-0.074219 0.511719l0.074219 0.074219v-0.585938zm-1.488281 1.925781c-0.164209 0.043331-0.333524 0.074219-0.511719 0.074219h-4l-3.773438 3.773438c0.220825 0.120781 0.453271 0.214959 0.681641 0.318359l3.091797-3.091797h4c0.178195 0 0.34751-0.030888 0.511719-0.074219l2.240234 2.240235c0.194346-0.137113 0.387179-0.276237 0.572266-0.427735l-2.8125-2.8125zm-8.511719 1.488281l-1.3242188 1.324219c0.1854752 0.149482 0.3787038 0.290026 0.5742188 0.425781l0.75-0.75v-1z" style="fill:#ffffff;opacity:.2"/>
</svg>

<svg xmlns="http://www.w3.org/2000/svg" width="32" height="32" version="1.1" viewBox="0 0 32 32">
 <path style="opacity:0.2" d="M 16,3 A 14,14 0 0 0 2,17 14,14 0 0 0 16,31 14,14 0 0 0 30,17 14,14 0 0 0 16,3 Z"/>
 <path style="fill:#144379" d="M 16,2 A 14,14 0 0 0 2,16 14,14 0 0 0 16,30 14,14 0 0 0 30,16 14,14 0 0 0 16,2 Z"/>
 <path style="opacity:0.2" d="M 16,7 C 13.69422,7.00225 11.460059,7.8012455 9.6757812,9.2617188 L 12.488281,12.074219 C 12.65249,12.030888 12.821805,12 13,12 l 6,0 c 0.178195,0 0.34751,0.03089 0.511719,0.07422 l 2.8125,-2.8125002 C 20.539942,7.8012445 18.30578,7.0022466 16,7 Z M 8.2617188,10.675781 C 6.8012454,12.460059 6.0022466,14.69422 6,17 c 0.00225,2.30578 0.8012453,4.539942 2.2617188,6.324219 L 11,20.585938 11,20 l 0,-1 0,-5 c 0,-0.178195 0.03089,-0.34751 0.07422,-0.511719 l -2.8125002,-2.8125 z m 15.4765622,0 -2.8125,2.8125 C 20.969112,13.65249 21,13.821805 21,14 l 0,6 c 0,0.178195 -0.03089,0.34751 -0.07422,0.511719 l 2.8125,2.8125 C 25.198755,21.539942 25.997753,19.30578 26,17 c -0.0022,-2.30578 -0.801246,-4.539941 -2.261719,-6.324219 z m -4.226562,11.25 C 19.34751,21.969112 19.178195,22 19,22 l -4,0 -3.773438,3.773438 C 12.690462,26.574128 14.331442,26.995788 16,27 c 2.30578,-0.0022 4.539942,-0.801246 6.324219,-2.261719 l -2.8125,-2.8125 z M 11,23.414062 9.6757812,24.738281 C 10.092339,25.074001 10.535167,25.375751 11,25.640625 l 0,-2.226563 z"/>
 <path style="fill:#ffffff;opacity:0.1" d="M 16 2 A 14 14 0 0 0 2 16 A 14 14 0 0 0 2.0214844 16.414062 A 14 14 0 0 1 16 3 A 14 14 0 0 1 29.978516 16.585938 A 14 14 0 0 0 30 16 A 14 14 0 0 0 16 2 z"/>
 <path style="fill:#00cea5" d="M 16,6 C 13.69422,6.00225 11.460059,6.8012456 9.6757812,8.2617188 L 12.488281,11.074219 C 12.65249,11.030888 12.821805,11 13,11 l 6,0 c 0.178195,0 0.34751,0.03089 0.511719,0.07422 l 2.8125,-2.8125002 C 20.539942,6.8012455 18.30578,6.0022466 16,6 Z"/>
 <path style="fill:#d152ac" d="M 8.2617188 9.6757812 C 6.8012455 11.460059 6.0022466 13.69422 6 16 C 6.00225 18.30578 6.8012454 20.539942 8.2617188 22.324219 L 11 19.585938 L 11 19 L 11 18 L 11 13 C 11 12.821805 11.030889 12.65249 11.074219 12.488281 L 8.2617188 9.6757812 z"/>
 <path style="fill:#d75950" d="m 23.738281,9.6757812 -2.8125,2.8124998 C 20.969112,12.65249 21,12.821805 21,13 l 0,6 c 0,0.178195 -0.03089,0.34751 -0.07422,0.511719 l 2.8125,2.8125 C 25.198754,20.539942 25.997753,18.30578 26,16 25.997753,13.69422 25.198754,11.460059 23.738281,9.6757812 Z"/>
 <path style="fill:#e88a19" d="M 19.511719 20.925781 C 19.34751 20.969112 19.178195 21 19 21 L 15 21 L 11.226562 24.773438 C 12.690461 25.574128 14.331442 25.995788 16 26 C 18.30578 25.9978 20.539942 25.198754 22.324219 23.738281 L 19.511719 20.925781 z M 11 22.414062 L 9.6757812 23.738281 C 10.092339 24.074001 10.535167 24.375751 11 24.640625 L 11 22.414062 z"/>
 <path style="fill:#ffffff;opacity:0.2" d="M 16 6 C 13.69422 6.00225 11.460059 6.8012454 9.6757812 8.2617188 L 10.248047 8.8339844 C 11.927243 7.6493105 13.933403 7.0020166 16 7 C 18.066597 7.0020136 20.072758 7.6493087 21.751953 8.8339844 L 22.324219 8.2617188 C 20.539942 6.8012444 18.30578 6.0022466 16 6 z M 8.2617188 9.6757812 C 6.8012453 11.460059 6.0022466 13.69422 6 16 C 6.0001633 16.167312 6.0129827 16.333587 6.0214844 16.5 C 6.130145 14.373019 6.9072202 12.330588 8.2617188 10.675781 L 11 13.414062 L 11 13 C 11 12.821805 11.030889 12.65249 11.074219 12.488281 L 8.2617188 9.6757812 z M 23.738281 9.6757812 L 20.925781 12.488281 C 20.969112 12.65249 21 12.821805 21 13 L 21 13.414062 L 23.738281 10.675781 C 25.092779 12.330588 25.869886 14.373019 25.978516 16.5 C 25.987017 16.333587 25.999837 16.167312 26 16 C 25.997753 13.69422 25.198754 11.460059 23.738281 9.6757812 z M 21 19 C 21 19.178195 20.969111 19.34751 20.925781 19.511719 L 21 19.585938 L 21 19 z M 19.511719 20.925781 C 19.34751 20.969112 19.178195 21 19 21 L 15 21 L 11.226562 24.773438 C 11.447387 24.894219 11.679833 24.988397 11.908203 25.091797 L 15 22 L 19 22 C 19.178195 22 19.34751 21.969112 19.511719 21.925781 L 21.751953 24.166016 C 21.946299 24.028903 22.139132 23.889779 22.324219 23.738281 L 19.511719 20.925781 z M 11 22.414062 L 9.6757812 23.738281 C 9.8612564 23.887763 10.054485 24.028307 10.25 24.164062 L 11 23.414062 L 11 22.414062 z"/>
</svg>
